img/coffee.svg

<svg width="24" height="24" viewBox="0 0 24 24" fill="none" xmlns="http://www.w3.org/2000/svg">
<path d="M17.4962 22.7366H3.61219C3.47419 22.7366 3.34219 22.6796 3.24919 22.5806L0.190187 19.3416C0.0521867 19.1956 0.0151867 18.9836 0.0941867 18.7996C0.173187 18.6166 0.354187 18.4976 0.553187 18.4976H4.57419C2.62319 15.5746 1.54819 12.2856 1.37519 8.70556C1.36819 8.56956 1.41719 8.43556 1.51119 8.33656C1.60619 8.23656 1.73719 8.18156 1.87319 8.18156H18.2312C18.2812 8.15956 18.5692 8.15856 18.7872 8.17156C18.8672 8.17656 18.9482 8.18156 19.0302 8.18156C20.3902 8.18156 21.6262 8.66756 22.5082 9.54956C23.4362 10.4746 23.9462 11.7086 23.9462 13.0246C23.9462 14.3376 23.4352 15.5706 22.5082 16.4986C21.5812 17.4266 20.3472 17.9366 19.0302 17.9366C18.3472 17.9366 17.6732 17.7936 17.0532 17.5226C16.8612 17.8506 16.6572 18.1766 16.4432 18.4986H20.5552C20.7542 18.4986 20.9352 18.6176 21.0142 18.8006C21.0932 18.9846 21.0562 19.1966 20.9182 19.3426L17.8572 22.5806C17.7642 22.6796 17.6332 22.7366 17.4962 22.7366ZM3.82819 21.7366H17.2802L19.3962 19.4986H15.4822C15.2942 19.4986 15.1212 19.3926 15.0362 19.2246C14.9512 19.0556 14.9682 18.8536 15.0802 18.7026C15.5832 18.0206 16.0202 17.3406 16.4172 16.6226C16.4812 16.5066 16.5902 16.4196 16.7192 16.3836C16.8492 16.3486 16.9862 16.3646 17.1022 16.4306C18.5882 17.2766 20.5872 17.0096 21.8022 15.7926C22.5402 15.0546 22.9482 14.0706 22.9482 13.0256C22.9482 11.9776 22.5422 10.9956 21.8022 10.2576C21.1092 9.56456 20.1242 9.18256 19.0312 9.18256C18.9292 9.18256 18.8292 9.17656 18.7292 9.17056C18.5922 9.16456 18.4582 9.14956 18.3212 9.17456L2.40519 9.18156C2.66819 12.6846 3.85519 15.8846 5.93919 18.7006C6.05119 18.8526 6.06819 19.0546 5.98319 19.2226C5.89819 19.3916 5.72519 19.4976 5.53719 19.4976H1.71319L3.82819 21.7366ZM19.0312 15.8456C18.4792 15.8456 17.9472 15.6876 17.4932 15.3866C17.2932 15.2546 17.2152 14.9996 17.3062 14.7796C17.8522 13.4526 18.2372 12.0556 18.4492 10.6296C18.4852 10.3846 18.6952 10.2026 18.9432 10.2026H19.0312C19.7872 10.2026 20.4972 10.4956 21.0292 11.0286C21.5622 11.5616 21.8562 12.2706 21.8562 13.0246C21.8562 13.7796 21.5622 14.4876 21.0292 15.0196C20.4982 15.5516 19.7882 15.8456 19.0312 15.8456ZM18.4002 14.7336C19.0452 14.9726 19.8262 14.8096 20.3222 14.3126C20.6672 13.9686 20.8562 13.5116 20.8562 13.0246C20.8562 12.5386 20.6672 12.0806 20.3222 11.7356C20.0572 11.4706 19.7252 11.2976 19.3642 11.2326C19.1572 12.4296 18.8332 13.6036 18.4002 14.7336ZM10.1802 7.98856C10.0622 7.98856 9.94519 7.94656 9.85119 7.86456C7.80119 6.07256 8.73119 4.88256 9.34619 4.09356C9.89719 3.38756 10.2002 2.99856 9.34319 2.11156C9.19219 1.95456 9.16019 1.71756 9.26219 1.52656C9.36519 1.33456 9.57519 1.23056 9.79419 1.27156C9.93519 1.29656 13.2462 1.93856 13.0892 4.12456C12.9432 6.09956 10.5722 7.82256 10.4722 7.89556C10.3842 7.95756 10.2822 7.98856 10.1802 7.98856ZM10.8232 2.64356C11.0532 3.52956 10.5242 4.20856 10.1352 4.70756C9.58519 5.41256 9.23519 5.86156 10.2082 6.83156C10.8992 6.25456 12.0142 5.11256 12.0922 4.05056C12.1392 3.38856 11.4752 2.93056 10.8232 2.64356ZM14.5692 7.98856C14.4512 7.98856 14.3342 7.94656 14.2402 7.86456C12.1902 6.07256 13.1222 4.88156 13.7382 4.09356C14.2912 3.38756 14.5942 2.99756 13.7382 2.11156C13.5872 1.95556 13.5542 1.71856 13.6572 1.52756C13.7602 1.33556 13.9702 1.23156 14.1892 1.27256C14.3302 1.29756 17.6402 1.93956 17.4812 4.12556C17.3352 6.10056 14.9612 7.82356 14.8602 7.89656C14.7732 7.95756 14.6702 7.98856 14.5692 7.98856ZM15.2162 2.64356C15.4472 3.53056 14.9162 4.20856 14.5262 4.70856C13.9752 5.41356 13.6242 5.86156 14.5972 6.83156C15.2882 6.25556 16.4052 5.11256 16.4832 4.05056C16.5322 3.38856 15.8692 2.93056 15.2162 2.64356ZM5.57019 7.98856C5.45219 7.98856 5.33519 7.94656 5.24119 7.86456C3.19219 6.07256 4.12219 4.88056 4.73819 4.09256C5.28919 3.38656 5.59319 2.99656 4.73619 2.11056C4.58419 1.95456 4.55219 1.71756 4.65519 1.52656C4.75819 1.33456 4.96819 1.23056 5.18719 1.27156C5.32819 1.29656 8.63919 1.93856 8.47919 4.12556C8.33619 6.09956 5.96219 7.82256 5.86119 7.89556C5.77419 7.95756 5.67119 7.98856 5.57019 7.98856ZM6.21519 2.64256C6.44519 3.52956 5.91519 4.20856 5.52619 4.70756C4.97519 5.41356 4.62519 5.86256 5.59819 6.83256C6.28819 6.25656 7.40519 5.11356 7.48119 4.05256C7.52819 3.41556 6.88519 2.94556 6.21519 2.64256Z" fill="white"/>
<path d="M17.75 19.499H4.375C4.099 19.499 3.875 19.275 3.875 18.999C3.875 18.723 4.099 18.499 4.375 18.499H17.75C18.026 18.499 18.25 18.723 18.25 18.999C18.25 19.275 18.026 19.499 17.75 19.499Z" fill="white"/>
</svg>

<svg xmlns="http://www.w3.org/2000/svg" xmlns:xlink="http://www.w3.org/1999/xlink" version="1.1" x="0px" y="0px" viewBox="0 0 24 24" enable-background="new 0 0 24 24" xml:space="preserve" style="max-width:100%" height="100%"><g style="" fill="currentColor"><path d="M17.496,22.737H3.612c-0.138,0-0.27-0.057-0.363-0.156L0.19,19.342c-0.138-0.146-0.175-0.358-0.096-0.542   c0.079-0.183,0.26-0.302,0.459-0.302h4.021c-1.951-2.923-3.026-6.212-3.199-9.792C1.368,8.57,1.417,8.436,1.511,8.337   c0.095-0.1,0.226-0.155,0.362-0.155h16.358c0.05-0.022,0.338-0.023,0.556-0.01c0.08,0.005,0.161,0.01,0.243,0.01   c1.36,0,2.596,0.486,3.478,1.368c0.928,0.925,1.438,2.159,1.438,3.475c0,1.313-0.511,2.546-1.438,3.474   c-0.927,0.928-2.161,1.438-3.478,1.438c-0.683,0-1.357-0.143-1.977-0.414c-0.192,0.328-0.396,0.654-0.61,0.976h4.112   c0.199,0,0.38,0.119,0.459,0.302c0.079,0.184,0.042,0.396-0.096,0.542l-3.061,3.238C17.764,22.68,17.633,22.737,17.496,22.737z    M3.828,21.737H17.28l2.116-2.238h-3.914c-0.188,0-0.361-0.106-0.446-0.274c-0.085-0.169-0.068-0.371,0.044-0.522   c0.503-0.682,0.94-1.362,1.337-2.08c0.064-0.116,0.173-0.203,0.302-0.239c0.13-0.035,0.267-0.019,0.383,0.047   c1.486,0.846,3.485,0.579,4.7-0.638c0.738-0.738,1.146-1.722,1.146-2.767c0-1.048-0.406-2.03-1.146-2.768   c-0.693-0.693-1.678-1.075-2.771-1.075c-0.102,0-0.202-0.006-0.302-0.012c-0.137-0.006-0.271-0.021-0.408,0.004L2.405,9.182   c0.263,3.503,1.45,6.703,3.534,9.519c0.112,0.152,0.129,0.354,0.044,0.522c-0.085,0.169-0.258,0.275-0.446,0.275H1.713   L3.828,21.737z M19.031,15.846c-0.552,0-1.084-0.158-1.538-0.459c-0.2-0.132-0.278-0.387-0.187-0.607   c0.546-1.327,0.931-2.724,1.143-4.15c0.036-0.245,0.246-0.427,0.494-0.427h0.088c0.756,0,1.466,0.293,1.998,0.826   c0.533,0.533,0.827,1.242,0.827,1.996c0,0.755-0.294,1.463-0.827,1.995C20.498,15.552,19.788,15.846,19.031,15.846z M18.4,14.734   c0.645,0.239,1.426,0.076,1.922-0.421c0.345-0.344,0.534-0.801,0.534-1.288c0-0.486-0.189-0.944-0.534-1.289   c-0.265-0.265-0.597-0.438-0.958-0.503C19.157,12.43,18.833,13.604,18.4,14.734z M10.18,7.989c-0.118,0-0.235-0.042-0.329-0.124   c-2.05-1.792-1.12-2.982-0.505-3.771c0.551-0.706,0.854-1.095-0.003-1.982C9.192,1.955,9.16,1.718,9.262,1.527   c0.103-0.192,0.313-0.296,0.532-0.255c0.141,0.025,3.452,0.667,3.295,2.853c-0.146,1.975-2.517,3.698-2.617,3.771   C10.384,7.958,10.282,7.989,10.18,7.989z M10.823,2.644c0.23,0.886-0.299,1.565-0.688,2.064c-0.55,0.705-0.9,1.154,0.073,2.124   c0.691-0.577,1.806-1.719,1.884-2.781C12.139,3.389,11.475,2.931,10.823,2.644z M14.569,7.989c-0.118,0-0.235-0.042-0.329-0.124   c-2.05-1.792-1.118-2.983-0.502-3.771c0.553-0.706,0.856-1.096,0-1.982c-0.151-0.156-0.184-0.393-0.081-0.584   c0.103-0.192,0.313-0.296,0.532-0.255c0.141,0.025,3.451,0.667,3.292,2.853c-0.146,1.975-2.52,3.698-2.621,3.771   C14.773,7.958,14.67,7.989,14.569,7.989z M15.216,2.644c0.231,0.887-0.3,1.565-0.69,2.065c-0.551,0.705-0.902,1.153,0.071,2.123   c0.691-0.576,1.808-1.719,1.886-2.781C16.532,3.389,15.869,2.931,15.216,2.644z M5.57,7.989c-0.118,0-0.235-0.042-0.329-0.124   C3.192,6.073,4.122,4.881,4.738,4.093c0.551-0.706,0.855-1.096-0.002-1.982C4.584,1.955,4.552,1.718,4.655,1.527   c0.103-0.192,0.313-0.296,0.532-0.255c0.141,0.025,3.452,0.667,3.292,2.854c-0.143,1.974-2.517,3.697-2.618,3.77   C5.774,7.958,5.671,7.989,5.57,7.989z M6.215,2.643c0.23,0.887-0.3,1.566-0.689,2.065C4.975,5.414,4.625,5.863,5.598,6.833   c0.69-0.576,1.807-1.719,1.883-2.78C7.528,3.416,6.885,2.946,6.215,2.643z" style="" fill="currentColor"></path><path d="M17.75,19.499H4.375c-0.276,0-0.5-0.224-0.5-0.5s0.224-0.5,0.5-0.5H17.75c0.276,0,0.5,0.224,0.5,0.5   S18.026,19.499,17.75,19.499z" style="" fill="currentColor"></path></g></svg>
